src/topics/icons/vimeo.svg

<svg height="146" preserveAspectRatio="xMidYMid" viewBox="0 0 512 146" width="512" xmlns="http://www.w3.org/2000/svg"><g fill="#1ab7eb"><path d="m114.456961 68.4791293c-.510839 11.1513832-8.295328 26.4196644-23.3534689 45.7990387-15.5701406 20.243156-28.7428209 30.365895-39.5180409 30.365895-6.6722539 0-12.3239909-6.162575-16.9366349-18.493532-3.081288-11.301152-6.1625759-22.603465-9.2427029-33.9034562-3.4272653-12.3239909-7.1006622-18.4935328-11.0318005-18.4935328-.8556553 0-3.8545124 1.8041904-8.98612242 5.3963174l-5.38819048-6.9439274c5.65057596-4.9667483 11.2256871-9.9346576 16.7125624-14.9083719 7.5360362-6.5155193 13.1947392-9.9416236 16.9668208-10.2876009 8.9118186-.8556553 14.3975329 5.2384218 16.4559819 18.2822313 2.2244716 14.0747755 3.7639546 22.8286984 4.6288979 26.2548027 2.569288 11.6773148 5.3951565 17.5090068 8.4834105 17.5090068 2.3974603 0 5.9965533-3.787175 10.7984399-11.3615238 4.7937596-7.5743492 7.3642086-13.337542 7.7090249-17.2977052.6838277-6.5375783-1.8854603-9.8139139-7.7090249-9.8139139-2.7434377 0-5.5693061.6315828-8.4764445 1.8784944 5.628517-18.440127 16.380517-27.3972245 32.251356-26.8863855 11.7667121.3459773 17.3127981 7.9806984 16.6359361 22.9041633"/><path d="m162.766077 13.1587483c-.171828 4.2678277-2.313868 8.3626667-6.431927 12.285678-4.628898 4.4326893-10.114613 6.650195-16.455982 6.650195-9.768635 0-14.488091-4.2608617-14.142114-12.789551.164862-4.4326893 2.78059-8.701678 7.837896-12.79651701 5.057306-4.08787302 10.669569-6.13935601 16.847238-6.13935601 3.599093 0 6.596789 1.41293424 9.001216 4.22370975 2.39746 2.8165805 3.509696 5.67263497 3.343673 8.56584127zm22.370104 91.4401817c-4.800725 9.077841-11.398675 17.298866-19.799655 24.663075-11.489233 9.933496-22.97034 14.901405-34.452608 14.901405-5.320852 0-9.392471-1.713632-12.21834-5.140898-2.825868-3.426104-4.155211-7.873886-3.982222-13.360761.164862-5.649415 1.923773-14.389406 5.266286-26.2095242 3.344834-11.820118 5.020154-18.1614876 5.020154-19.0183039 0-4.4489433-1.54761-6.6803809-4.628898-6.6803809-1.028644 0-3.94507 1.8041904-8.745796 5.3963174l-5.914122-6.9439274c5.485714-4.9667483 10.970267-9.9346576 16.455981-14.9083719 7.371175-6.5155193 12.856889-9.9416236 16.464109-10.2876009 5.650576-.510839 9.805787 1.1505487 12.465633 4.9980952 2.65288 3.8463855 3.637406 8.8363538 2.960544 14.9826758-2.231437 10.4222766-4.635864 23.6553288-7.206313 39.7049618-.171827 7.349115 2.488018 11.015546 7.973733 11.015546 2.396299 0 6.67922-2.530975 12.855728-7.61034 5.140898-4.22371 9.340226-8.198966 12.601469-11.9257687z"/><path d="m345.712617 104.59893c-4.800726 9.077841-11.398676 17.298866-19.799656 24.663075-11.489233 9.933496-22.971501 14.901405-34.452607 14.901405-11.151383 0-16.54654-6.162576-16.201724-18.501659.164862-5.485715 1.239946-12.074377 3.208998-19.784563 1.969052-7.7101857 3.044136-13.706739 3.215964-17.9884987.172988-6.5085532-1.804191-9.7686349-5.936182-9.7686349-4.471002 0-9.79882 5.3196916-15.990421 15.9439819-6.537579 11.1444177-10.069334 21.9428567-10.580173 32.3941587-.344816 7.379302.376164 13.038005 2.1641 16.976109-11.96176.344816-20.341841-1.631202-25.120508-5.914123-4.28292-3.772081-6.245007-10.024054-5.899029-18.771011.164861-5.485714 1.006585-10.970268 2.524009-16.455982 1.511619-5.4857141 2.352181-10.3700315 2.52517-14.6610792.345977-6.3413696-1.976018-9.5120544-6.950894-9.5120544-4.298013 0-8.933877 4.8912835-13.908752 14.6599184-4.973715 9.7686352-7.724118 19.9726442-8.234957 30.5980952-.345978 9.603773.270512 16.284154 1.841342 20.056236-11.767873.344816-20.123574-2.135075-25.068263-7.440835-4.102966-4.439655-5.973333-11.187374-5.628517-20.250122.166023-4.440816.947374-10.640544 2.359147-18.5910568 1.412935-7.9493514 2.202413-14.1409523 2.367275-18.5887346.33785-3.074322-.435374-4.614966-2.313869-4.614966-1.029805 0-3.94507 1.7356916-8.746957 5.2012698l-6.168381-6.9439274c.855656-.6757007 6.250812-5.650576 16.200563-14.9083719 7.198186-6.680381 12.082503-10.1064853 14.651791-10.2794739 4.45707-.3459774 8.056163 1.495365 10.79844 5.5228662 2.742277 4.0275011 4.118059 8.701678 4.118059 14.0144036 0 1.7124717-.172989 3.3436735-.510839 4.8843175 2.569288-3.9381043 5.568145-7.3723356 9.001215-10.2876009 7.883175-6.8522087 16.712563-10.7148481 26.481198-11.5716644 8.400979-.6838277 14.397533 1.2852245 18.004753 5.9141224 2.908299 3.7720816 4.275954 9.1742041 4.109932 16.2005624 1.202793-1.021678 2.488018-2.1420408 3.862639-3.3436735 3.938104-4.628898 7.792617-8.3104218 11.564698-11.0538594 6.34137-4.628898 12.947447-7.198186 19.799656-7.7171519 8.227991-.6838277 14.142113 1.2770975 17.741206 5.8909025 3.081288 3.7569886 4.455909 9.1382131 4.118059 16.1332244-.172989 4.7867937-1.329342 11.7458141-3.471383 20.8828663-2.150168 9.1370526-3.215964 14.3812786-3.215964 15.7489346-.172989 3.592127.172989 6.065052 1.028644 7.432707.857977 1.366494 2.908299 2.042195 6.170703 2.042195 2.396299 0 6.67922-2.530975 12.855728-7.61034 5.140898-4.22371 9.340227-8.198966 12.601469-11.9257687z"/><path d="m383.765478 77.4884717c.164862-4.5987121-1.713632-6.9056146-5.650576-6.9056146-5.139736 0-10.354938 3.5387211-15.660698 10.6173243-5.304599 7.0786032-8.046875 13.8565079-8.212898 20.3337146-.097524 0-.097524 1.112236 0 3.32858 8.385887-3.066195 15.659538-7.7543037 21.822114-14.0666483 4.959782-5.4543674 7.527909-9.8963447 7.702058-13.307356zm58.370322 26.8480723c-4.974875 8.221025-14.742349 16.433923-29.31287 24.646821-18.169615 10.444336-36.601615 15.660698-55.282068 15.660698-13.886694 0-23.835284-4.630058-29.831837-13.879727-4.284082-6.34137-6.342531-13.879728-6.169542-22.625524.166023-13.8785671 6.342531-27.0733063 18.514431-39.5923449 13.368889-13.7055782 29.141043-20.5670748 47.310657-20.5670748 16.80196 0 25.713778 6.8452426 26.743583 20.5217959.682667 8.71561-4.118059 17.6959274-14.397533 26.9316644-10.978394 10.0913924-24.781496 16.5012604-41.403501 19.2354104 3.080127 4.275955 7.709025 6.41103 13.885533 6.41103 12.339084 0 25.79737-3.134694 40.373696-9.416853 10.452463-4.409469 18.681615-8.99425 24.685134-13.7438912z"/><path d="m482.879855 86.1297778c.172989-4.635864-.472526-8.8897597-1.930739-12.7523991-1.458214-3.8614785-3.56078-5.8003447-6.297252-5.8003447-8.745796 0-15.945143 4.7264218-21.595719 14.1722993-4.808852 7.7322449-7.379301 15.9753288-7.717152 24.7292517-.171827 4.298014.601397 8.078222 2.313869 11.338304 1.878494 3.780209 4.53834 5.665669 7.972571 5.665669 7.710186 0 14.315102-4.545306 19.800816-13.653334 4.627737-7.558095 7.10879-15.4563623 7.453606-23.6994462zm29.057451.9694331c-.689633 15.7500951-6.514358 29.3581501-17.484626 40.8241631-10.970267 11.467175-24.602703 17.201343-40.885696 17.201343-13.540716 0-23.828317-4.366513-30.853515-13.098377-5.139737-6.499265-7.972571-14.629732-8.48341-24.383274-.863782-14.7202905 4.447782-28.2470751 15.943982-40.569905 12.339084-13.6904853 27.848852-20.5357279 46.536272-20.5357279 11.994267 0 21.079075 4.0275011 27.254422 12.0674104 5.831691 7.3642087 8.484571 16.8623311 7.972571 28.4943674z"/></g></svg>

<?xml version="1.0" encoding="UTF-8" standalone="no"?>
<svg width="512px" height="146px" viewBox="0 0 512 146" version="1.1" xmlns="http://www.w3.org/2000/svg" xmlns:xlink="http://www.w3.org/1999/xlink" preserveAspectRatio="xMidYMid">
	<g fill="#1AB7EB">
		<path d="M114.456961,68.4791293 C113.946122,79.6305125 106.161633,94.8987937 91.1034921,114.278168 C75.5333515,134.521324 62.3606712,144.644063 51.5854512,144.644063 C44.9131973,144.644063 39.2614603,138.481488 34.6488163,126.150531 C31.5675283,114.849379 28.4862404,103.547066 25.4061134,92.2470748 C21.9788481,79.9230839 18.3054512,73.753542 14.3743129,73.753542 C13.5186576,73.753542 10.5198005,75.5577324 5.38819048,79.1498594 L0,72.205932 C5.65057596,67.2391837 11.2256871,62.2712744 16.7125624,57.2975601 C24.2485986,50.7820408 29.9073016,47.3559365 33.6793832,47.0099592 C42.5912018,46.1543039 48.0769161,52.248381 50.1353651,65.2921905 C52.3598367,79.366966 53.8993197,88.1208889 54.764263,91.5469932 C57.333551,103.224308 60.1594195,109.056 63.2476735,109.056 C65.6451338,109.056 69.2442268,105.268825 74.0461134,97.6944762 C78.839873,90.120127 81.410322,84.3569342 81.7551383,80.396771 C82.438966,73.8591927 79.869678,70.5828571 74.0461134,70.5828571 C71.3026757,70.5828571 68.4768073,71.2144399 65.5696689,72.4613515 C71.1981859,54.0212245 81.9501859,45.064127 97.8210249,45.574966 C109.587737,45.9209433 115.133823,53.5556644 114.456961,68.4791293"></path>
		<path d="M162.766077,13.1587483 C162.594249,17.426576 160.452209,21.521415 156.33415,25.4444263 C151.705252,29.8771156 146.219537,32.0946213 139.878168,32.0946213 C130.109533,32.0946213 125.390077,27.8337596 125.736054,19.3050703 C125.900916,14.872381 128.516644,10.6033923 133.57395,6.50855329 C138.631256,2.42068027 144.243519,0.369197279 150.421188,0.369197279 C154.020281,0.369197279 157.017977,1.78213152 159.422404,4.59290703 C161.819864,7.40948753 162.9321,10.265542 162.766077,13.1587483 L162.766077,13.1587483 Z M185.136181,104.59893 C180.335456,113.676771 173.737506,121.897796 165.336526,129.262005 C153.847293,139.195501 142.366186,144.16341 130.883918,144.16341 C125.563066,144.16341 121.491447,142.449778 118.665578,139.022512 C115.83971,135.596408 114.510367,131.148626 114.683356,125.661751 C114.848218,120.012336 116.607129,111.272345 119.949642,99.4522268 C123.294476,87.6321088 124.969796,81.2907392 124.969796,80.4339229 C124.969796,75.9849796 123.422186,73.753542 120.340898,73.753542 C119.312254,73.753542 116.395828,75.5577324 111.595102,79.1498594 L105.68098,72.205932 C111.166694,67.2391837 116.651247,62.2712744 122.136961,57.2975601 C129.508136,50.7820408 134.99385,47.3559365 138.60107,47.0099592 C144.251646,46.4991202 148.406857,48.1605079 151.066703,52.0080544 C153.719583,55.8544399 154.704109,60.8444082 154.027247,66.9907302 C151.79581,77.4130068 149.391383,90.646059 146.820934,106.695692 C146.649107,114.044807 149.308952,117.711238 154.794667,117.711238 C157.190966,117.711238 161.473887,115.180263 167.650395,110.100898 C172.791293,105.877188 176.990621,101.901932 180.251864,98.1751293 L185.136181,104.59893 L185.136181,104.59893 Z"></path>
		<path d="M345.712617,104.59893 C340.911891,113.676771 334.313941,121.897796 325.912961,129.262005 C314.423728,139.195501 302.94146,144.16341 291.460354,144.16341 C280.308971,144.16341 274.913814,138.000834 275.25863,125.661751 C275.423492,120.176036 276.498576,113.587374 278.467628,105.877188 C280.43668,98.1670023 281.511764,92.170449 281.683592,87.8886893 C281.85658,81.3801361 279.879401,78.1200544 275.74741,78.1200544 C271.276408,78.1200544 265.94859,83.439746 259.756989,94.0640363 C253.21941,105.208454 249.687655,116.006893 249.176816,126.458195 C248.832,133.837497 249.55298,139.4962 251.340916,143.434304 C239.379156,143.77912 230.999075,141.803102 226.220408,137.520181 C221.937488,133.7481 219.975401,127.496127 220.321379,118.74917 C220.48624,113.263456 221.327964,107.778902 222.845388,102.293188 C224.357007,96.8074739 225.197569,91.9231565 225.370558,87.6321088 C225.716535,81.2907392 223.39454,78.1200544 218.419664,78.1200544 C214.121651,78.1200544 209.485787,83.0113379 204.510912,92.7799728 C199.537197,102.548608 196.786794,112.752617 196.275955,123.378068 C195.929977,132.981841 196.546467,139.662222 198.117297,143.434304 C186.349424,143.77912 177.993723,141.299229 173.049034,135.993469 C168.946068,131.553814 167.075701,124.806095 167.420517,115.743347 C167.58654,111.302531 168.367891,105.102803 169.779664,97.1522902 C171.192599,89.2029388 171.982077,83.0113379 172.146939,78.5635556 C172.484789,75.4892336 171.711565,73.9485896 169.83307,73.9485896 C168.803265,73.9485896 165.888,75.6842812 161.086113,79.1498594 L154.917732,72.205932 C155.773388,71.5302313 161.168544,66.555356 171.118295,57.2975601 C178.316481,50.6171791 183.200798,47.1910748 185.770086,47.0180862 C190.227156,46.6721088 193.826249,48.5134512 196.568526,52.5409524 C199.310803,56.5684535 200.686585,61.2426304 200.686585,66.555356 C200.686585,68.2678277 200.513596,69.8990295 200.175746,71.4396735 C202.745034,67.5015692 205.743891,64.0673379 209.176961,61.1520726 C217.060136,54.2998639 225.889524,50.4372245 235.658159,49.5804082 C244.059138,48.8965805 250.055692,50.8656327 253.662912,55.4945306 C256.571211,59.2666122 257.938866,64.6687347 257.772844,71.695093 C258.975637,70.673415 260.260862,69.5530522 261.635483,68.3514195 C265.573587,63.7225215 269.4281,60.0409977 273.200181,57.2975601 C279.541551,52.6686621 286.147628,50.0993741 292.999837,49.5804082 C301.227828,48.8965805 307.14195,50.8575057 310.741043,55.4713107 C313.822331,59.2282993 315.196952,64.6095238 314.859102,71.6045351 C314.686113,76.3913288 313.52976,83.3503492 311.387719,92.4874014 C309.237551,101.624454 308.171755,106.86868 308.171755,108.236336 C307.998766,111.828463 308.344744,114.301388 309.200399,115.669043 C310.058376,117.035537 312.108698,117.711238 315.371102,117.711238 C317.767401,117.711238 322.050322,115.180263 328.22683,110.100898 C333.367728,105.877188 337.567057,101.901932 340.828299,98.1751293 L345.712617,104.59893"></path>
		<path d="M383.765478,77.4884717 C383.93034,72.8897596 382.051846,70.5828571 378.114902,70.5828571 C372.975166,70.5828571 367.759964,74.1215782 362.454204,81.2001814 C357.149605,88.2787846 354.407329,95.0566893 354.241306,101.533896 C354.143782,101.533896 354.143782,102.646132 354.241306,104.862476 C362.627193,101.796281 369.900844,97.1081723 376.06342,90.7958277 C381.023202,85.3414603 383.591329,80.899483 383.765478,77.4884717 L383.765478,77.4884717 Z M442.1358,104.336544 C437.160925,112.557569 427.393451,120.770467 412.82293,128.983365 C394.653315,139.427701 376.221315,144.644063 357.540862,144.644063 C343.654168,144.644063 333.705578,140.014005 327.709025,130.764336 C323.424943,124.422966 321.366494,116.884608 321.539483,108.138812 C321.705506,94.2602449 327.882014,81.0655057 340.053914,68.5464671 C353.422803,54.8408889 369.194957,47.9793923 387.364571,47.9793923 C404.166531,47.9793923 413.078349,54.8246349 414.108154,68.5011882 C414.790821,77.2167982 409.990095,86.1971156 399.710621,95.4328526 C388.732227,105.524245 374.929125,111.934113 358.30712,114.668263 C361.387247,118.944218 366.016145,121.079293 372.192653,121.079293 C384.531737,121.079293 397.990023,117.944599 412.566349,111.66244 C423.018812,107.252971 431.247964,102.66819 437.251483,97.9185488 L442.1358,104.336544 L442.1358,104.336544 Z"></path>
		<path d="M482.879855,86.1297778 C483.052844,81.4939138 482.407329,77.2400181 480.949116,73.3773787 C479.490902,69.5159002 477.388336,67.577034 474.651864,67.577034 C465.906068,67.577034 458.706721,72.3034558 453.056145,81.7493333 C448.247293,89.4815782 445.676844,97.7246621 445.338993,106.478585 C445.167166,110.776599 445.94039,114.556807 447.652862,117.816889 C449.531356,121.597098 452.191202,123.482558 455.625433,123.482558 C463.335619,123.482558 469.940535,118.937252 475.426249,109.829224 C480.053986,102.271129 482.535039,94.3728617 482.879855,86.1297778 L482.879855,86.1297778 Z M511.937306,87.0992109 C511.247673,102.849306 505.422948,116.457361 494.45268,127.923374 C483.482413,139.390549 469.849977,145.124717 453.566984,145.124717 C440.026268,145.124717 429.738667,140.758204 422.713469,132.02634 C417.573732,125.527075 414.740898,117.396608 414.230059,107.643066 C413.366277,92.9227755 418.677841,79.3959909 430.174041,67.073161 C442.513125,53.3826757 458.022893,46.5374331 476.710313,46.5374331 C488.70458,46.5374331 497.789388,50.5649342 503.964735,58.6048435 C509.796426,65.9690522 512.449306,75.4671746 511.937306,87.0992109 L511.937306,87.0992109 Z"></path>
	</g>
</svg>
